!! 00000] TT[WS
!!!OTL: Cong qianshang liaodaole heobanshang
!!!ARE: Asia, China, Shanxi Yuanping
!! Ethnic Group: Han
!! WII, 61 (1)
!!!SCT: J0488
!!!YEM: Copyright 1995, estate of Helmut Schaffrath.
**kern
*ICvox
*Ivox
*M3/8
*k[b-]
*F:
{16ff
16dd
8cc
8g
=1
16cc
16dd
8cc
8cc
=2
8b-
8g
16b-
16d
=3
[4.c
=4
4.c]}
=5
{8f
8c
8f
=6
8g
8cc
8c
=7
8f
8d
8c
=8
[4.c
=9
4.c]}
==
!!!AGN: Xiaodiao. Qingge, Sichun
!!!ONB: ESAC (Essen Associative Code) Database: CHINA
!!!AMT: simple triple
!!!AIN: vox
!!!EED: Helmut Schaffrath
!!!EEV: 1.0
*-
!!!ONB: Tied note syntax fixed by Craig Sapp, 2004/05/03/
